X: 38777
T: Stuck In A Rut
R: slip jig
M: 9/8
K: Dminor
|:^CDE GFE GFE|^CDE GFE FED|^CDE GFE GFE|^CDE GFE FED:|
|:fed dAF FED|fed azg e3|fed dAF FED|^CDE GFE FED:|

